packages/gestalt/src/icons/tag.svg

<svg width="24" height="24" xmlns="http://www.w3.org/2000/svg"><path fill="#B5B5B5" d="M6 8c1.1 0 2-.9 2-2s-.9-2-2-2-2 .9-2 2 .9 2 2 2m7.36-6.2l8.84 8.84a2.71 2.71 0 0 1 0 3.85l-7.71 7.71a2.71 2.71 0 0 1-3.85 0L1.8 13.36c-.51-.51-.8-1.2-.8-1.92V3.73C1 2.22 2.22 1 3.73 1h7.71c.72 0 1.41.29 1.92.8"/></svg>

<svg width="24" height="24" viewBox="0 0 24 24" xmlns="http://www.w3.org/2000/svg" ><path fill="#B5B5B5" d="M6.00,8.00 C7.10,8.00 8.00,7.10 8.00,6.00 C8.00,4.90 7.10,4.00 6.00,4.00 C4.90,4.00 4.00,4.90 4.00,6.00 C4.00,7.10 4.90,8.00 6.00,8.00 M13.36,1.80 L22.20,10.64 C23.27,11.70 23.27,13.43 22.20,14.49 L14.49,22.20 C13.43,23.27 11.70,23.27 10.64,22.20 L1.80,13.36 C1.29,12.85 1.00,12.16 1.00,11.44 L1.00,3.73 C1.00,2.22 2.22,1.00 3.73,1.00 L11.44,1.00 C12.16,1.00 12.85,1.29 13.36,1.80"/></svg>
